X:2
T:How My Heart Sings
C:Earl Zinders
L:1/8
M:3/4
I:linebreak $
K:C
^fa |:"Em" g4 B2 |"Am" c4 de |"Dm" f4 A2 |"G7" B4 cd |"C" e4 c2 |$"F" A2- ABce |"Bø" d4 B2 |
"E7" ^G6 |"Am" z A B2 c2 |$"Abo" d2 B2- B^G |"Am" A2- ABcA ||1[K:E]"F#ø" e6 |"E" B2- Bc e2 |$
"Go" f2- fd =c2 |"F#m" c2- ce c2 |"B7" g4 fg ||[K:A][M:C]"D" a6 f2 |"A" e6 c2 |$"D" a6 f2 |
"A" e8 ||[K:G]"C" g6 e2 |"G" d6 B2 |"C" G4- GEGB |"B7" d4- dfga :|2$
[K:C][M:3/4]"D7" e2- e"D#o"B c2 |"Em" g6 |"Am" c2- cd e2 |"Dm" f6 |"G7" B6 |"C" c6- | c6- | c6 |]

